build/img/sprites/dark_blue_decor.svg

<svg width="691" height="507" viewBox="0 0 691 507" fill="none" xmlns="http://www.w3.org/2000/svg">
<path fill-rule="evenodd" clip-rule="evenodd" d="M498.064 17.0215L627.312 124.618C634.722 130.785 642.328 166.359 632.316 178.638L443.395 410.333L398.775 373.138L559.743 183.489C564.525 175.392 572.291 176.111 568.713 162.148L557.835 152.85L482.343 89.3206C475.33 85.0789 473.259 79.3599 460.822 85.8957L454.539 92.5174L296.53 290.993L251.365 254.288L443.252 21.1002C450.572 12.2136 488.569 9.11981 498.064 17.0215Z" fill="#3A7AC5"/>
<path fill-rule="evenodd" clip-rule="evenodd" d="M418.939 533.157L289.69 425.559C282.28 419.387 274.675 383.821 284.686 371.541L473.604 139.839L518.224 177.037L357.251 366.693C352.469 374.784 344.708 374.07 348.286 388.03L359.162 397.322L434.651 460.861C441.666 465.103 443.742 470.815 456.178 464.29L462.458 457.667L620.469 259.187L665.634 295.889L473.747 529.077C466.427 537.97 428.427 541.059 418.939 533.157Z" fill="#3A7AC5"/>
<path fill-rule="evenodd" clip-rule="evenodd" d="M583.365 591.315L584.906 730.522C750.897 662.247 889.998 533.383 915 339.292C930.225 127.968 856.914 9.13005 750.189 -75.4943L765.36 -147.361L671.993 -199.522L622.463 -149.261C595.652 -159.542 568.083 -167.169 539.77 -172.109L516.08 -239L408.949 -237.831L392.543 -174.277C361.996 -169.944 332.36 -162.591 303.641 -152.214L253.463 -194.962L161.273 -140.777L177.613 -82.8057C90.2852 -15.8207 20.4452 99.9093 4.2574 207.551L0 340.524C0.855628 415.144 2.20216 532.496 2.2955 535.314L121.287 534.016C121 528.385 118.614 279.68 118.55 273.873C117.888 213.901 132.56 157.563 162.64 105.515C192.783 53.3383 233.989 11.776 286.158 -19.189C337.954 -50.0425 394.42 -65.8562 455.376 -66.6472C516.322 -67.1843 573.132 -52.6078 625.594 -22.892C678.44 6.93027 720.487 47.6141 751.846 99.0891C783.05 150.574 798.985 206.403 799.649 266.447C801.523 435.783 706.642 532.488 583.365 591.315ZM530.885 732.238L529.347 593.198L469.807 593.848L471.346 732.888L530.885 732.238ZM422.616 733.42L421.078 594.38L361.531 595.028L363.07 734.071L422.616 733.42ZM311.649 734.63L310.111 595.588L250.575 596.238L252.113 735.279L311.649 734.63ZM205.313 735.807L4.12949 738L2.59108 598.941L203.774 596.748L205.313 735.807Z" fill="#3A7AC5"/>
</svg>

<svg width="691" height="507" viewBox="0 0 691 507" fill="none" xmlns="http://www.w3.org/2000/svg"><path fill-rule="evenodd" clip-rule="evenodd" d="M498.064 17.021l129.248 107.597c7.41 6.167 15.016 41.741 5.004 54.02L443.395 410.333l-44.62-37.195 160.968-189.649c4.782-8.097 12.548-7.378 8.97-21.341l-10.878-9.298-75.492-63.53c-7.013-4.241-9.084-9.96-21.521-3.424l-6.283 6.621L296.53 290.993l-45.165-36.705L443.252 21.1c7.32-8.886 45.317-11.98 54.812-4.079z" fill="#3A7AC5"/><path fill-rule="evenodd" clip-rule="evenodd" d="M418.939 533.157L289.69 425.559c-7.41-6.172-15.015-41.738-5.004-54.018l188.918-231.702 44.62 37.198-160.973 189.656c-4.782 8.091-12.543 7.377-8.965 21.337l10.876 9.292 75.489 63.539c7.015 4.242 9.091 9.954 21.527 3.429l6.28-6.623 158.011-198.48 45.165 36.702-191.887 233.188c-7.32 8.893-45.32 11.982-54.808 4.08z" fill="#3A7AC5"/><path fill-rule="evenodd" clip-rule="evenodd" d="M583.365 591.315l1.541 139.207C750.897 662.247 889.998 533.383 915 339.292 930.225 127.968 856.914 9.13 750.189-75.494l15.171-71.867-93.367-52.161-49.53 50.261a443.242 443.242 0 00-82.693-22.848L516.08-239l-107.131 1.169-16.406 63.554c-30.547 4.333-60.183 11.686-88.902 22.063l-50.178-42.748-92.19 54.185 16.34 57.971C90.285-15.82 20.445 99.91 4.257 207.551L0 340.524c.856 74.62 2.202 191.972 2.296 194.79l118.991-1.298c-.287-5.631-2.673-254.336-2.737-260.143-.662-59.972 14.01-116.31 44.09-168.358 30.143-52.177 71.349-93.739 123.518-124.704 51.796-30.853 108.262-46.667 169.218-47.458 60.946-.537 117.756 14.04 170.218 43.755C678.44 6.93 720.487 47.614 751.846 99.089c31.204 51.485 47.139 107.314 47.803 167.358 1.874 169.336-93.007 266.041-216.284 324.868zm-52.48 140.923l-1.538-139.04-59.54.65 1.539 139.04 59.539-.65zm-108.269 1.182l-1.538-139.04-59.547.648 1.539 139.043 59.546-.651zm-110.967 1.21l-1.538-139.042-59.536.65 1.538 139.041 59.536-.649zm-106.336 1.177L4.129 738 2.591 598.941l201.183-2.193 1.539 139.059z" fill="#3A7AC5"/></svg>
